X: 1053
T: Jigg
%R: jig, waltz
B: Henry Playford "Apollo's Banquet", London 1687 (5th Edition)
F: https://archive.org/details/apollosbanquetco01rugg
Z: 2017 John Chambers <jc:trillian.mit.edu>
M: 6/4
L: 1/8
K: G
% - - - - - - - - - -
d2 |\
g3fe2 (d2B2)G2 | =f3ed2 (c2A2)G2 | F6 D4d2 |\
g3fe2 (d2B2)G2 | =f3ed2 (c2A2)F2 | G6- G2 :|
|: c2 |\
B3cd2 (d2B2)e2 | (e2A2)c2 E3FG2 | F6 D4c2 |\
B3cd2 (d2B2)e2 | (e2A2)c2 E3AF2 | G6- G4 |]
% - - - - - - - - - -

%%sep 1 1 500
%%sep 1 1 500

